svg/Octicons/circle-slash.svg

<svg xmlns="http://www.w3.org/2000/svg" viewBox="0 0 640 1024"><path d="m320 192c-176.78 0-320 143.22-320 320 0 176.75 143.22 320 320 320 176.75 0 320-143.25 320-320 0-176.78-143.25-320-320-320m0 128c27.656 0 53.688 6.094 77.44 16.562l-252.88 252.88c-10.468-23.75-16.562-49.782-16.562-77.44 0-106 85.938-192 192-192m0 384c-28.03 0-54.53-6.375-78.59-17.12l253.91-252.5c10.563 23.813 16.688 49.906 16.688 77.62 0 106.06-85.938 192-192 192"/></svg>

<svg height="1024" width="640" xmlns="http://www.w3.org/2000/svg">
  <path d="M320 192C143.219 192 0 335.219 0 512c0 176.75 143.219 320 320 320 176.75 0 320-143.25 320-320C640 335.219 496.75 192 320 192zM320 320c27.656 0 53.688 6.094 77.438 16.562L144.562 589.438C134.094 565.688 128 539.656 128 512 128 406 213.938 320 320 320zM320 704c-28.031 0-54.531-6.375-78.594-17.125l253.906-252.5C505.875 458.188 512 484.281 512 512 512 618.062 426.062 704 320 704z" />
</svg>
